!!!!SEGMENT: pl-wtm--r-1456_stefani-jozef--bog-sie-rodzi.krn
!!!cenid: 18xx:2174
!!!COM: Stefani, Józef
!!!COM-rismid: pe30024097
!!!CDT: 1800/04/16-1876/03/19
!!!CNT: Polish
!!!OTL: Bóg się rodzi
!!!PDT:
!!!AGN:
!!!SMS-siglum: PL-Wtm
!!!SMS-shelfmark: R 1456
!!!SMS-shelfwork: W
!!!SMS-variant:
!!!SMS-altvar:
!!!NIFC-rismid: 1001120703
!!!URL-scan: http://repozytorium.nifc.pl/skany/pl-wtm-nut--r1456
!!!ONB-nifc: UWAGA: Na ostatniej stronie trzy alternatywne takty początku utworu
!!!key:
**kern	**kern	**kern	**text	**kern	**text	**dynam
*part3	*part3	*part2	*part2	*part1	*part1	*part1
*staff4	*staff3	*staff2	*staff2	*staff1	*staff1	*
*Iorgan	*Iorgan	*Iempty	*	*Isoprn&Ialto	*	*
*I"Organo.	*I"Organo.	*I"Baſso	*	*I"Soprano  et Alto	*	*
*clefF4	*clefG2	*clefF4	*	*clefG2	*	*
*k[b-]	*k[b-]	*k[b-]	*	*k[b-]	*	*
*F:	*F:	*F:	*	*F:	*	*
*M6/8	*M6/8	*M6/8	*	*M6/8	*	*
=1	=1	=1	=1	=1	=1	=1
*^	*	*	*	*	*	*
*all\right	*all\right	*all\right	*	*all\right	*	*	*
!	!	!	!	!	!LO:TX:a:i:t=Andante.	!	!
!	!	!	!	!	!LO:TX:a:i:t=Trój-śpiew.	!	!
!	!	!	!	!	!	!	!LO:DY:a:rj
4F\	2.rAA	4f/	4F\	Bóg	4f/	.	p
8A\	.	8a/	8A\	się	8a/	.	.
4c\	.	4cc\	4c\	ro-	4cc\	.	.
8d\	.	8dd\	8d\	-dzi	8dd\	.	.
=2	=2	=2	=2	=2	=2	=2	=2
8B-\L	2.rAA	8b-/L	8B-\L	moc	(<8b-/L	.	.
8A\	.	8a/	8A\J	.	8a/J)	.	.
8F\J	.	8f/J	8F\	tru-	8f/	.	.
8D/L	.	8d/L	8D\	-chle-	8d/	.	.
8C/J	.	8c/J	8C\	-je,	8c/	.	.
!	!	!	!	!	!	!	!LO:DY:a:rj
8A\	.	8cc 8f/	8A\	Nie-	8cc 8f/	.	mf
=3	=3	=3	=3	=3	=3	=3	=3
*	*	*^	*	*	*	*	*
4B-\	2.rAA	4dd/	4.f\	4B-\	-bio-	4dd 4f/	.	.
8A\	.	8cc/	.	8A\	-sów	8cc 8f/	.	.
8G\	.	8b-/L	8f\	8G\	Pan	8b- 8f/	.	.
4C\	.	8cc/	4e\	8C/	o-	8cc 8e/	.	.
.	.	8b-/J	.	8C/	-bna-	8b- 8e/	.	.
*v	*v	*	*	*	*	*	*	*
*	*v	*v	*	*	*	*	*
=4	=4	=4	=4	=4	=4	=4
4F\	4a 4f/	(>4F\	-żo-	(>4a 4f/	.	.
(>16C\LL	16gLL 16e/	16C\LL	.	16gLL 16e/	.	.
16D\JJ)	16fJJ 16d/	16D\JJ)	.	16fJJ 16d/)	.	.
8C/	8g 8e/	8C\	-ny	8a 8f/	.	.
4C#X/	4a 4e/	8C#X/	O-	8a 8e/	.	.
.	.	8C#/	-gień	8a 8e/	.	.
!!LO:LB:g=original
=5	=5	=5	=5	=5	=5	=5
*^	*^	*	*	*^	*	*
4D/	4DD\	4b-/ 4f/	4ryy	4D/	Krze-	4a/ 4f/	4ryy	.	.
8Cn/	8CCn\	8a 8e/	8ryy	8Cn/	-pnie	8a 8e/	8ryy	.	.
4BB-/	4.BBB-\	8a/L	4.d\	4BB-/	Blask	8a/L	4d\	.	.
.	.	16g/L	.	.	.	16g/L	.	.	.
.	.	16f/J	.	.	.	16f/JJ	.	.	.
8B- 8BB-\	.	8g/J	.	8B-\	cie-	8g/	8d\	.	.
=6	=6	=6	=6	=6	=6	=6	=6	=6	=6
[4A [4AA\	[4AAA\	4a 4e/	8d\L	4A\	-mniè-	[>4a/	8d\L	.	.
.	.	.	16c#X\L	.	.	.	16c#X\L	.	.
.	.	.	16Bn\JJ	.	.	.	16Bn\JJ	.	.
8A] 8AA\;>]	8AAA\]	8a;>/	8c#\	8A;<\	-je	8a;>/]	8c#\	.	.
!	!	!	!	!	!	!	!	!	!LO:DY:a:rj
4D/	4r	4f 4d/	4ryy	4D/	Ma	4f 4d/	8ryy	.	p
.	.	.	.	.	.	.	4ryy	.	.
8C/	8rDD	8g 8e/	8ryy	8Cn/	gra-	8g 8e/	.	.	.
*v	*v	*	*	*	*	*v	*v	*	*
*	*v	*v	*	*	*	*	*
=7	=7	=7	=7	=7	=7	=7
4.F 4.FF/	[>4.a [>4.f [<4.c/	4.F\	-ni-	4.a 4.f/	.	.
4F 4FF/	4a] 4f] 4c/]	4F\	-ce	4a 4f/	.	.
8r	8r	8r	.	8r	.	.
=8	=8	=8	=8	=8	=8	=8
*	*^	*	*	*^	*	*
2.E 2.EE/	4.a/ 4.c/	4.ryy	4.E\	Nie-	(>4.a/ 4.c/	4.ryy	.	.
.	4a/	4Bn\	4.E\	-skoń-	4a/)	4Bn\	.	.
.	8g#X/	16B\LL	.	.	8g#X/	16B\LL	.	.
.	.	16d\JJ	.	.	.	16d\JJ	.	.
*	*	*	*	*	*v	*v	*	*
!!LO:LB:g=original
=9	=9	=9	=9	=9	=9	=9	=9
*^	*	*	*	*	*	*	*
4.F/	4.FF/	[4.a/ 4.c/	4.ryy	4F\	-czo-	4a 4c/	.	.
.	.	.	.	8F\	-ny	8a 8c/	.	.
4D\	4r	4a/]	4.f\	4D\	ma	4a 4f/	.	.
8F\	8rDD	8dd/	.	8F\	gra-	8dd 8f/	.	.
=10	=10	=10	=10	=10	=10	=10	=10	=10
4.G\	2.rAA	4.cc/ 4.e/	4.ryy	4G\	-ni-	4cc 4e/	.	.
.	.	.	.	8G\	-ce	8cc 8e/	.	.
4GG/	.	8ccL 8e/	8ryy	4GG/	nie-	8ccL 8e/	.	.
.	.	8dd 8f/	4ryy	.	.	8ddJ 8f/	.	.
8G\	.	8bnJ 8d/	.	8G\	-skon-	8bn 8d/	.	.
=11	=11	=11	=11	=11	=11	=11	=11	=11
*	*	*	*	*	*	*^	*	*
4.G#X\	4.GG#X\	8bn/L	[<4.e\	4.G#X\	-czo-	8bn/L	4.e\	.	.
.	.	8ee/	.	.	.	8ee/	.	.	.
.	.	8dd/J	.	.	.	8dd/J	.	.	.
8A 8AA\	8ryy	8cc/	8e\]	8A\	-ny	8cc/	8e\	.	.
4F\	8rDD	16a/LL	4f\	8F\	ma	16a/LL	8f\	.	.
.	.	16b/	.	.	.	16b/JJ	.	.	.
.	8rDD	16cc/	.	8F\	gra-	16cc/LL	8f\	.	.
.	.	16dd/JJ	.	.	.	16dd/JJ	.	.	.
*	*	*	*	*	*	*	*	*	*
*	*	*	*	*	*	*v	*v	*	*
=12	=12	=12	=12	=12	=12	=12	=12	=12
[4.Gn\	2.r	[>4.cc/ [4.e/	4.ryy	4G\	-ni-	4cc 4e/	.	.
.	.	.	.	8G\	-cę	8cc 8e/	.	.
4.G] 4.GG\	.	8cc]L 8e/]	4ryy	4GG/	nie-	8ccL 8e/	.	.
.	.	8dd 8f/	.	.	.	8ddJ 8f/	.	.
.	.	8bnJ 8d/	8ryy	8GG/	-skoń-	8bn 8d/	.	.
*	*	*v	*v	*	*	*	*	*
!!LO:PB:g=original
=13	=13	=13	=13	=13	=13	=13	=13
!	!	!	!	!	!	!	!LO:HP:a
4.G 4.C\	4rDD	4dd 4f/	[>4.C/	-czo-	(<4dd 4f/	.	>
.	8rDD	8cc 8e/	.	.	8cc 8e/)	.	]
8G 8C\	8rDD	8cc 8e/	8C/]	-ny	8cc 8e/	.	.
4C/	4CC\	8r	8C/	o-	8r	.	.
.	.	8r	8C/	-bna-	8r	.	.
=14	=14	=14	=14	=14	=14	=14	=14
*	*2\right	*	*	*	*	*	*
[>2.C/	[<2.CC\	8r	8C/	-żo-	8r	.	.
.	.	4g 4e/	8C/	-ny	8g 8e/	ob-	.
.	.	.	8C/	o-	8g 8e/	-na-	.
.	.	4b-X 4g/	4C/	-kry-	8b-X 8g/	-żo-	.
.	.	.	.	.	8b- 8g/	-ny	.
.	.	8a-X 8f/	8C/	-ty	8a-X 8f/	o-	.
=15	=15	=15	=15	=15	=15	=15	=15
4.C/_>	4.CC\_<	8ccL 8a-X/	4.C/	chwa-	8ccL 8a-X/	-kry-	.
.	.	8b- 8g/	.	.	8b-J 8g/	.	.
.	.	[>8a-XJ [>8f/	.	.	8a-X 8f/	-ty	.
4C/]	4CC\]	8a-]L 8f/]	4C/	-łą	8a- 8f/	chwa-	.
.	.	8gJ 8e/	.	.	8g 8e/	-łą	.
8C/	8CC\	8r	8C/	Smier-	8r	.	.
=16	=16	=16	=16	=16	=16	=16	=16
*	*	*^	*	*	*^	*	*
2.D-X/	2.DD-X\	4ree	8r	4.D-X\	-tel-	4r	8ryy	.	.
.	.	.	8r	.	.	.	8f\	smier-	.
.	.	8ree	8f\	.	.	8r	4f\	-tel-	.
.	.	8ree	4.f\	4.D-\	-ny	8r	.	.	.
.	.	8ree	.	.	.	8r	8ryy	.	.
*	*	*	*	*	*	*	*	*^	*
!	!	!	!	!	!	!	!LO:TX:a:t=P:problem=w źródle drugi tekst słowny (trwający 2 1/6 taktu) zapisany nad górną pięciolinią	!	!	!
.	.	8a-X/	.	.	.	8a-X/	8f\	-ny	Śmier	.
!!LO:LB:g=original
=17	=17	=17	=17	=17	=17	=17	=17	=17	=17	=17
2.D-X/	2.DD-X/	4ff/	4.f\	4.D-X\	Król	4ff/	4.f\	Król	tel-	.
!	!	!	!	!	!	!	!	!	!	!LO:HP:a
.	.	8a-X/	.	.	.	8a-X/	.	.	-ny	<
.	.	4a-/	[<4.f\	4D-\	nad	8a-/	4f\	nad	król	.
.	.	.	.	.	.	8a-/	.	.	nad	.
.	.	8b-/	.	8D-\	wie-	8b-/	8f\	wie-	wie-	.
=18	=18	=18	=18	=18	=18	=18	=18	=18	=18	=18
!	!	!	!	!	!	!	!	!	!	!LO:DY:a:rj
[>4.C/	[<4.CC\	4.b- 4.g/	8f\L]	4.C\	-ka-	4.cc/	8f\L	-ka-	-ka-	[ f
.	.	.	8e\	.	.	.	8e\	.	.	.
.	.	.	8d\J	.	.	.	8d\J	.	.	.
4C;>/]	4CC\]	4cc 4g 4e;>/	4ryy	4C;>\	-mi	4cc;>/	4e\	-mi	-mi	.
!	!	!	!	!	!	!	!	!	!	!LO:DY:a:rj
8C/	8ryy	8cc\	8ryy	8C\	A	8cc\	8ryy	.	.	pp
*	*	*	*	*	*	*	*	*v	*v	*
*	*	*v	*v	*	*	*v	*v	*	*
=19	=19	=19	=19	=19	=19	=19	=19
4F\	2.rAA	4f/	4F\	sło-	4f/	.	.
8G\	.	8g/	8G\	-wo	8g/	.	.
4A\	.	4a/	8A\	Cia-	8an/	.	.
.	.	.	8A\	-łem	8a/	.	.
8B-\	.	8b-/	8B-\	się	8b-/	.	.
=20	=20	=20	=20	=20	=20	=20	=20
*	*	*^	*	*	*	*	*
4A\	2.rAA	4a/	4ryy	(>4A\	sta-	(>4a/	.	.
8G\	.	8g/	4ryy	8G\)	.	8g/)	.	.
!	!	!	!	!	!	!	!	!LO:DY:a
8F\	.	8f/	.	8F\	-ło	8f/	.	mf
!	!	!	!	!	!	!	!	!LO:HP:a
4A\	.	8cc/L	4f\	8A\	I	8cc 8f/	.	<
.	.	8cc#X/J	.	8A\	mię-	8cc#X 8f/	.	[[
!!LO:LB:g=original
=21	=21	=21	=21	=21	=21	=21	=21	=21
*	*	*	*	*	*	*^	*	*
4.B-\	4rDD	4dd/	8f\L	4B-\	-szka-	4dd/	8f\L	.	.
.	.	.	8f#X\	.	.	.	8f#X\J	.	.
.	8rDD	8b-/	8g\J	8B-\	-ło	8b-/	8g\	.	.
!LO:TX:t=P:problem=mixed beam	!	!	!	!LO:TX:t=P:problem=mixedm beam	!	!	!	!	!
8c\L	8rDD	8gL 8e/	8ryy	8c\L	mię-	8gL 8e/	8ryy	.	.
8C/	8CC\L	8cc 8a/	4ryy	8C\J	.	8ccJ 8a/	4ryy	.	.
8C#X/J	8CC#X\J	[>8b-J [8g/	.	8C#X/	-dzy	8b- 8g/	.	.	.
=22	=22	=22	=22	=22	=22	=22	=22	=22	=22
4D/	4DD\	8b-]L 8g/]	4ryy	4D/	na-	8b- 8g/	4ryy	.	.
.	.	8aJ 8f/	.	.	.	8a 8f/	.	.	.
16Cn/LL	8rDD	8r	8ryy	(<16Cn/LL	-mi	8r	8ryy	.	.
16BB-/JJ	.	.	.	16BB-/JJ)	.	.	.	.	.
!	!	!	!	!	!	!	!	!	!LO:HP:a
4.AA/	4rDD	4cc/	4.f\	4AA/	I	4cc/	4f\	.	<
.	8rDD	8cc#X/	.	8AA/	mię-	8cc#X/	8f\	.	[[
=23	=23	=23	=23	=23	=23	=23	=23	=23	=23
4BB-/	4.BB-\	16ee/LL	8f\L	4BB-/	-szka-	16ee/LL	8f\L	.	.
.	.	16dd/	.	.	.	16dd/	.	.	.
.	.	16cc/	16f#X\L	.	.	16ccn/	16f#X\L	.	.
.	.	16b-/JJ	16g\J	.	.	16b-/JJ	16g\J	.	.
*	*	*Xtuplet	*	*	*	*	*	*	*
8D/	.	24a/LL	8g\J	8BB-/	-ło	16a/LL	8g\J	.	.
.	.	24b-/	.	.	.	.	.	.	.
.	.	.	.	.	.	16b-/JJ	.	.	.
.	.	24g/JJ	.	.	.	.	.	.	.
.	.	.	.	.	.	16qqg/	.	.	.
4.C/	4.CC/	8aL 8f#/	8ryy	4C/	mię-	8f#/L	8a\L	.	.
.	.	8a 8f# 8c/	4ryy	.	.	8a/J	8c\J	.	.
.	.	8gJ 8e 8B-/	.	8C/	-dzy	8g/	8A\	.	.
*v	*v	*	*	*	*	*v	*v	*	*
*	*v	*v	*	*	*	*	*
=24	=24	=24	=24	=24	=24	=24
4.F 4.C 4.FF/	4g 4e 4B-/	4.F\	na-	(>4g 4B-/	.	.
.	8f 8A/	.	.	8f 8A/)	.	.
!	!LO:TX:t=P:problem=chyba wykreślona pauza 8	!	!	!	!	!
!	!LO:N:vis=4.	!	!	!	!	!
4.F 4.C 4.FF;>/	4f 4A;>/	4F\	-mi.	4f 4A/	.	.
.	8r	8r;>	.	8r;>	.	.
!!LO:LB:g=original
==25	==25	==25	==25	==25	==25	==25
*-	*-	*-	*-	*-	*-	*-
!!!system-decoration: {s1,s2}{(s3,s4)}
!!!RDF**kern: > = above
!!!RDF**kern: < = below
!!!EED: Antoni Szymański
!!!EST: 2021-06-02
!!!AIN: 1 alto 1 empty 1 organ 1 soprn
!!!ENC: Andrzej Gręziak
!!!END: 2021-05-17
